X:44
T: S IST EIN MANN IN BRUNN GEFALLN
N: K0338
O: Europa, Mitteleuropa, Deutschland, Thueringen
R: Kinder -, Schaukel -, Kniereiter -, Spiel - Lied
M: 2/4
L: 1/8
K: C
 | CDEF | GGG2 |
CDEF | GGG2 |
CDEF | GGG2 |
FFEC | D2Cz

@@@ Tune index: 7381
